X: 1
T: Eppie McNab
B: Paddledoo, MMM 1
R: jig
Z: John Chambers <jc:trillian.mit.edu>
M: 6/8
L: 1/8
K: A
|: c/B/ | "A"A>EF A2A | "Bm"B>AB "E7"F2E/F/ | "A"Ace aga | "D"efd "A"cBA | "D"dfd "A"cec |
| "Bm"B>AB "E7"FcB | "A"A>EF A2B | cee "E7"e2 :: f/g/ | "A"aec Ace | "D"~a3 "A"aec | Ace ~a3 |
| "D"f>af "A"ecA | "D"d>fd "A"cec | "Bm"B>AB "E7"FcB | "A"A>EF A2B | cee "(E7)"e2 :|
